images/50741799.svg

<?xml version="1.0" encoding="UTF-8"?>
<svg xmlns="http://www.w3.org/2000/svg" xmlns:xlink="http://www.w3.org/1999/xlink" width="300pt" height="300pt" viewBox="0 0 300 300" version="1.1">
<defs>
<g>
<symbol overflow="visible" id="glyph0-0">
<path style="stroke:none;" d="M 0.453125 1.59375 L 0.453125 -6.34375 L 4.953125 -6.34375 L 4.953125 1.59375 Z M 0.953125 1.09375 L 4.453125 1.09375 L 4.453125 -5.84375 L 0.953125 -5.84375 Z M 0.953125 1.09375 "/>
</symbol>
<symbol overflow="visible" id="glyph0-1">
<path style="stroke:none;" d="M 0.890625 -6.5625 L 4.65625 -6.5625 L 4.65625 -5.8125 L 1.765625 -5.8125 L 1.765625 -3.875 L 4.375 -3.875 L 4.375 -3.140625 L 1.765625 -3.140625 L 1.765625 0 L 0.890625 0 Z M 0.890625 -6.5625 "/>
</symbol>
<symbol overflow="visible" id="glyph0-2">
<path style="stroke:none;" d="M 0.890625 -6.5625 L 2.078125 -6.5625 L 4.984375 -1.078125 L 4.984375 -6.5625 L 5.84375 -6.5625 L 5.84375 0 L 4.65625 0 L 1.75 -5.484375 L 1.75 0 L 0.890625 0 Z M 0.890625 -6.5625 "/>
</symbol>
<symbol overflow="visible" id="glyph0-3">
<path style="stroke:none;" d="M 0.890625 -6.5625 L 1.765625 -6.5625 L 1.765625 -3.875 L 5 -3.875 L 5 -6.5625 L 5.890625 -6.5625 L 5.890625 0 L 5 0 L 5 -3.125 L 1.765625 -3.125 L 1.765625 0 L 0.890625 0 Z M 0.890625 -6.5625 "/>
</symbol>
<symbol overflow="visible" id="glyph0-4">
<path style="stroke:none;" d="M 3.546875 -5.953125 C 2.898438 -5.953125 2.382812 -5.710938 2 -5.234375 C 1.625 -4.753906 1.4375 -4.101562 1.4375 -3.28125 C 1.4375 -2.445312 1.625 -1.789062 2 -1.3125 C 2.382812 -0.832031 2.898438 -0.59375 3.546875 -0.59375 C 4.191406 -0.59375 4.703125 -0.832031 5.078125 -1.3125 C 5.453125 -1.789062 5.640625 -2.445312 5.640625 -3.28125 C 5.640625 -4.101562 5.453125 -4.753906 5.078125 -5.234375 C 4.703125 -5.710938 4.191406 -5.953125 3.546875 -5.953125 Z M 3.546875 -6.6875 C 4.460938 -6.6875 5.195312 -6.375 5.75 -5.75 C 6.300781 -5.132812 6.578125 -4.3125 6.578125 -3.28125 C 6.578125 -2.238281 6.300781 -1.410156 5.75 -0.796875 C 5.195312 -0.179688 4.460938 0.125 3.546875 0.125 C 2.617188 0.125 1.878906 -0.179688 1.328125 -0.796875 C 0.773438 -1.410156 0.5 -2.238281 0.5 -3.28125 C 0.5 -4.3125 0.773438 -5.132812 1.328125 -5.75 C 1.878906 -6.375 2.617188 -6.6875 3.546875 -6.6875 Z M 3.546875 -6.6875 "/>
</symbol>
</g>
</defs>
<g id="surface22973">
<rect x="0" y="0" width="300" height="300" style="fill:rgb(100%,100%,100%);fill-opacity:1;stroke:none;"/>
<path style="fill:none;stroke-width:1.2;stroke-linecap:butt;stroke-linejoin:miter;stroke:rgb(20%,80%,80%);stroke-opacity:1;stroke-miterlimit:10;" d="M 113.914062 161.460938 L 101.886719 159.585938 "/>
<path style="fill:none;stroke-width:1.2;stroke-linecap:butt;stroke-linejoin:miter;stroke:rgb(0%,0%,0%);stroke-opacity:1;stroke-miterlimit:10;" d="M 101.886719 159.585938 L 89.859375 157.710938 "/>
<path style=" stroke:none;fill-rule:nonzero;fill:rgb(100%,100%,100%);fill-opacity:1;" d="M 110.914062 155.960938 L 116.914062 155.960938 L 116.914062 166.960938 L 110.914062 166.960938 Z M 110.914062 155.960938 "/>
<g style="fill:rgb(20%,80%,80%);fill-opacity:1;">
  <use xlink:href="#glyph0-1" x="110.914062" y="164.624023"/>
</g>
<path style="fill:none;stroke-width:1.2;stroke-linecap:butt;stroke-linejoin:miter;stroke:rgb(0%,0%,0%);stroke-opacity:1;stroke-miterlimit:10;" d="M 89.859375 157.710938 L 74.582031 176.671875 "/>
<path style="fill:none;stroke-width:1.2;stroke-linecap:butt;stroke-linejoin:miter;stroke:rgb(0%,0%,0%);stroke-opacity:1;stroke-miterlimit:10;" d="M 83.867188 156.015625 L 71.648438 171.183594 "/>
<path style="fill:none;stroke-width:1.2;stroke-linecap:butt;stroke-linejoin:miter;stroke:rgb(0%,0%,0%);stroke-opacity:1;stroke-miterlimit:10;" d="M 81.074219 135.003906 L 89.859375 157.710938 "/>
<path style="fill:none;stroke-width:1.2;stroke-linecap:butt;stroke-linejoin:miter;stroke:rgb(0%,0%,0%);stroke-opacity:1;stroke-miterlimit:10;" d="M 74.582031 176.671875 L 50.523438 172.921875 "/>
<path style="fill:none;stroke-width:1.2;stroke-linecap:butt;stroke-linejoin:miter;stroke:rgb(0%,0%,0%);stroke-opacity:1;stroke-miterlimit:10;" d="M 50.523438 172.921875 L 42.886719 182.402344 "/>
<path style="fill:none;stroke-width:1.2;stroke-linecap:butt;stroke-linejoin:miter;stroke:rgb(20%,80%,80%);stroke-opacity:1;stroke-miterlimit:10;" d="M 42.886719 182.402344 L 35.25 191.882812 "/>
<path style="fill:none;stroke-width:1.2;stroke-linecap:butt;stroke-linejoin:miter;stroke:rgb(0%,0%,0%);stroke-opacity:1;stroke-miterlimit:10;" d="M 50.523438 172.921875 L 41.742188 150.214844 "/>
<path style="fill:none;stroke-width:1.2;stroke-linecap:butt;stroke-linejoin:miter;stroke:rgb(0%,0%,0%);stroke-opacity:1;stroke-miterlimit:10;" d="M 54.988281 168.585938 L 47.964844 150.417969 "/>
<path style=" stroke:none;fill-rule:nonzero;fill:rgb(100%,100%,100%);fill-opacity:1;" d="M 29.25 186.382812 L 35.25 186.382812 L 35.25 197.382812 L 29.25 197.382812 Z M 29.25 186.382812 "/>
<g style="fill:rgb(20%,80%,80%);fill-opacity:1;">
  <use xlink:href="#glyph0-1" x="29.25" y="195.045898"/>
</g>
<path style="fill:none;stroke-width:1.2;stroke-linecap:butt;stroke-linejoin:miter;stroke:rgb(0%,0%,0%);stroke-opacity:1;stroke-miterlimit:10;" d="M 41.742188 150.214844 L 57.019531 131.253906 "/>
<path style="fill:none;stroke-width:1.2;stroke-linecap:butt;stroke-linejoin:miter;stroke:rgb(0%,0%,0%);stroke-opacity:1;stroke-miterlimit:10;" d="M 57.019531 131.253906 L 81.074219 135.003906 "/>
<path style="fill:none;stroke-width:1.2;stroke-linecap:butt;stroke-linejoin:miter;stroke:rgb(0%,0%,0%);stroke-opacity:1;stroke-miterlimit:10;" d="M 58.542969 137.289062 L 77.789062 140.289062 "/>
<path style="fill:none;stroke-width:1.2;stroke-linecap:butt;stroke-linejoin:miter;stroke:rgb(0%,0%,0%);stroke-opacity:1;stroke-miterlimit:10;" d="M 81.074219 135.003906 L 88.714844 125.523438 "/>
<path style="fill:none;stroke-width:1.2;stroke-linecap:butt;stroke-linejoin:miter;stroke:rgb(0%,0%,100%);stroke-opacity:1;stroke-miterlimit:10;" d="M 88.714844 125.523438 L 96.351562 116.042969 "/>
<path style="fill:none;stroke-width:1.2;stroke-linecap:butt;stroke-linejoin:miter;stroke:rgb(0%,0%,100%);stroke-opacity:1;stroke-miterlimit:10;" d="M 96.351562 116.042969 L 108.378906 117.917969 "/>
<path style="fill:none;stroke-width:1.2;stroke-linecap:butt;stroke-linejoin:miter;stroke:rgb(0%,0%,0%);stroke-opacity:1;stroke-miterlimit:10;" d="M 108.378906 117.917969 L 120.40625 119.792969 "/>
<path style=" stroke:none;fill-rule:nonzero;fill:rgb(100%,100%,100%);fill-opacity:1;" d="M 89.351562 110.542969 L 103.351562 110.542969 L 103.351562 121.542969 L 89.351562 121.542969 Z M 89.351562 110.542969 "/>
<g style="fill:rgb(0%,0%,100%);fill-opacity:1;">
  <use xlink:href="#glyph0-2" x="89.351562" y="119.206055"/>
  <use xlink:href="#glyph0-3" x="96.329102" y="119.206055"/>
</g>
<path style="fill:none;stroke-width:1.2;stroke-linecap:butt;stroke-linejoin:miter;stroke:rgb(0%,0%,0%);stroke-opacity:1;stroke-miterlimit:10;" d="M 120.40625 119.792969 L 129.191406 142.503906 "/>
<path style="fill:none;stroke-width:1.2;stroke-linecap:butt;stroke-linejoin:miter;stroke:rgb(0%,0%,0%);stroke-opacity:1;stroke-miterlimit:10;" d="M 126.628906 120 L 133.65625 138.164062 "/>
<path style="fill:none;stroke-width:1.2;stroke-linecap:butt;stroke-linejoin:miter;stroke:rgb(0%,0%,0%);stroke-opacity:1;stroke-miterlimit:10;" d="M 135.683594 100.835938 L 120.40625 119.792969 "/>
<path style="fill:none;stroke-width:1.2;stroke-linecap:butt;stroke-linejoin:miter;stroke:rgb(0%,0%,0%);stroke-opacity:1;stroke-miterlimit:10;" d="M 129.191406 142.503906 L 153.246094 146.25 "/>
<path style="fill:none;stroke-width:1.2;stroke-linecap:butt;stroke-linejoin:miter;stroke:rgb(0%,0%,0%);stroke-opacity:1;stroke-miterlimit:10;" d="M 153.246094 146.25 L 168.523438 127.292969 "/>
<path style="fill:none;stroke-width:1.2;stroke-linecap:butt;stroke-linejoin:miter;stroke:rgb(0%,0%,0%);stroke-opacity:1;stroke-miterlimit:10;" d="M 150.3125 140.761719 L 162.535156 125.59375 "/>
<path style="fill:none;stroke-width:1.2;stroke-linecap:butt;stroke-linejoin:miter;stroke:rgb(0%,0%,0%);stroke-opacity:1;stroke-miterlimit:10;" d="M 168.523438 127.292969 L 159.738281 104.582031 "/>
<path style="fill:none;stroke-width:1.2;stroke-linecap:butt;stroke-linejoin:miter;stroke:rgb(0%,0%,0%);stroke-opacity:1;stroke-miterlimit:10;" d="M 168.523438 127.292969 L 192.578125 131.039062 "/>
<path style="fill:none;stroke-width:1.2;stroke-linecap:butt;stroke-linejoin:miter;stroke:rgb(0%,0%,0%);stroke-opacity:1;stroke-miterlimit:10;" d="M 159.738281 104.582031 L 135.683594 100.835938 "/>
<path style="fill:none;stroke-width:1.2;stroke-linecap:butt;stroke-linejoin:miter;stroke:rgb(0%,0%,0%);stroke-opacity:1;stroke-miterlimit:10;" d="M 156.453125 109.867188 L 137.207031 106.871094 "/>
<path style="fill:none;stroke-width:1.2;stroke-linecap:butt;stroke-linejoin:miter;stroke:rgb(0%,0%,0%);stroke-opacity:1;stroke-miterlimit:10;" d="M 194.808594 132.835938 L 202.445312 123.359375 "/>
<path style="fill:none;stroke-width:1.2;stroke-linecap:butt;stroke-linejoin:miter;stroke:rgb(100%,0%,0%);stroke-opacity:1;stroke-miterlimit:10;" d="M 202.445312 123.359375 L 210.085938 113.878906 "/>
<path style="fill:none;stroke-width:1.2;stroke-linecap:butt;stroke-linejoin:miter;stroke:rgb(0%,0%,0%);stroke-opacity:1;stroke-miterlimit:10;" d="M 190.347656 129.242188 L 197.984375 119.765625 "/>
<path style="fill:none;stroke-width:1.2;stroke-linecap:butt;stroke-linejoin:miter;stroke:rgb(100%,0%,0%);stroke-opacity:1;stroke-miterlimit:10;" d="M 197.984375 119.765625 L 205.625 110.285156 "/>
<path style="fill:none;stroke-width:1.2;stroke-linecap:butt;stroke-linejoin:miter;stroke:rgb(0%,0%,0%);stroke-opacity:1;stroke-miterlimit:10;" d="M 192.578125 131.039062 L 201.359375 153.75 "/>
<path style=" stroke:none;fill-rule:nonzero;fill:rgb(100%,100%,100%);fill-opacity:1;" d="M 203.855469 106.582031 L 211.855469 106.582031 L 211.855469 117.582031 L 203.855469 117.582031 Z M 203.855469 106.582031 "/>
<g style="fill:rgb(100%,0%,0%);fill-opacity:1;">
  <use xlink:href="#glyph0-4" x="203.855469" y="115.245117"/>
</g>
<path style="fill:none;stroke-width:1.2;stroke-linecap:butt;stroke-linejoin:miter;stroke:rgb(0%,0%,0%);stroke-opacity:1;stroke-miterlimit:10;" d="M 201.359375 153.75 L 186.085938 172.707031 "/>
<path style="fill:none;stroke-width:1.2;stroke-linecap:butt;stroke-linejoin:miter;stroke:rgb(0%,0%,0%);stroke-opacity:1;stroke-miterlimit:10;" d="M 204.292969 159.238281 L 192.074219 174.40625 "/>
<path style="fill:none;stroke-width:1.2;stroke-linecap:butt;stroke-linejoin:miter;stroke:rgb(0%,0%,0%);stroke-opacity:1;stroke-miterlimit:10;" d="M 225.417969 157.496094 L 201.359375 153.75 "/>
<path style="fill:none;stroke-width:1.2;stroke-linecap:butt;stroke-linejoin:miter;stroke:rgb(0%,0%,0%);stroke-opacity:1;stroke-miterlimit:10;" d="M 186.085938 172.707031 L 194.867188 195.417969 "/>
<path style="fill:none;stroke-width:1.2;stroke-linecap:butt;stroke-linejoin:miter;stroke:rgb(0%,0%,0%);stroke-opacity:1;stroke-miterlimit:10;" d="M 194.867188 195.417969 L 218.925781 199.164062 "/>
<path style="fill:none;stroke-width:1.2;stroke-linecap:butt;stroke-linejoin:miter;stroke:rgb(0%,0%,0%);stroke-opacity:1;stroke-miterlimit:10;" d="M 198.15625 190.132812 L 217.402344 193.128906 "/>
<path style="fill:none;stroke-width:1.2;stroke-linecap:butt;stroke-linejoin:miter;stroke:rgb(0%,0%,0%);stroke-opacity:1;stroke-miterlimit:10;" d="M 218.925781 199.164062 L 234.199219 180.207031 "/>
<path style="fill:none;stroke-width:1.2;stroke-linecap:butt;stroke-linejoin:miter;stroke:rgb(0%,0%,0%);stroke-opacity:1;stroke-miterlimit:10;" d="M 234.199219 180.207031 L 225.417969 157.496094 "/>
<path style="fill:none;stroke-width:1.2;stroke-linecap:butt;stroke-linejoin:miter;stroke:rgb(0%,0%,0%);stroke-opacity:1;stroke-miterlimit:10;" d="M 227.976562 180 L 220.953125 161.835938 "/>
<path style="fill:none;stroke-width:1.2;stroke-linecap:butt;stroke-linejoin:miter;stroke:rgb(0%,0%,0%);stroke-opacity:1;stroke-miterlimit:10;" d="M 225.417969 157.496094 L 233.054688 148.019531 "/>
<path style="fill:none;stroke-width:1.2;stroke-linecap:butt;stroke-linejoin:miter;stroke:rgb(100%,0%,0%);stroke-opacity:1;stroke-miterlimit:10;" d="M 233.054688 148.019531 L 240.691406 138.539062 "/>
<path style="fill:none;stroke-width:1.2;stroke-linecap:butt;stroke-linejoin:miter;stroke:rgb(100%,0%,0%);stroke-opacity:1;stroke-miterlimit:10;" d="M 240.691406 138.539062 L 252.722656 140.414062 "/>
<path style="fill:none;stroke-width:1.2;stroke-linecap:butt;stroke-linejoin:miter;stroke:rgb(0%,0%,0%);stroke-opacity:1;stroke-miterlimit:10;" d="M 252.722656 140.414062 L 264.75 142.289062 "/>
<path style=" stroke:none;fill-rule:nonzero;fill:rgb(100%,100%,100%);fill-opacity:1;" d="M 236.691406 133.039062 L 244.691406 133.039062 L 244.691406 144.039062 L 236.691406 144.039062 Z M 236.691406 133.039062 "/>
<g style="fill:rgb(100%,0%,0%);fill-opacity:1;">
  <use xlink:href="#glyph0-4" x="236.691406" y="141.702148"/>
</g>
</g>
</svg>

<svg xmlns="http://www.w3.org/2000/svg" xmlns:xlink="http://www.w3.org/1999/xlink" width="300pt" height="300pt" viewBox="0 0 300 300"><defs><symbol overflow="visible"><path d="M.453 1.594v-7.938h4.5v7.938zm.5-.5h3.5v-6.938h-3.5zm0 0"/></symbol><symbol overflow="visible" id="a"><path d="M.89-6.563h3.766v.75h-2.89v1.938h2.61v.734h-2.61V0H.89zm0 0"/></symbol><symbol overflow="visible" id="b"><path d="M.89-6.563H2.08l2.906 5.485v-5.484h.86V0H4.656L1.75-5.484V0H.89zm0 0"/></symbol><symbol overflow="visible" id="c"><path d="M.89-6.563h.876v2.688H5v-2.688h.89V0H5v-3.125H1.766V0H.89zm0 0"/></symbol><symbol overflow="visible" id="d"><path d="M3.547-5.953c-.65 0-1.164.242-1.547.72-.375.48-.563 1.13-.563 1.952 0 .835.188 1.49.563 1.967.383.48.898.72 1.547.72.644 0 1.156-.24 1.53-.72.376-.476.564-1.132.564-1.968 0-.822-.187-1.474-.562-1.954-.375-.477-.887-.72-1.53-.72zm0-.734c.914 0 1.648.312 2.203.937.55.617.828 1.438.828 2.47 0 1.042-.277 1.87-.828 2.483-.555.617-1.29.922-2.203.922-.93 0-1.668-.305-2.22-.922C.774-1.41.5-2.237.5-3.28c0-1.033.273-1.853.828-2.47.55-.625 1.29-.938 2.22-.938zm0 0"/></symbol></defs><g><path fill="#fff" d="M0 0h300v300H0z"/><path d="M113.914 161.46l-12.027-1.874" stroke-width="1.2" stroke="#3cc" stroke-miterlimit="10" fill="none"/><path d="M101.887 159.586L89.86 157.71" stroke-width="1.2" stroke="#000" stroke-miterlimit="10" fill="none"/><path d="M110.914 155.96h6v11h-6zm0 0" fill="#fff"/><use xlink:href="#a" x="110.914" y="164.624" fill="#3cc"/><path d="M89.86 157.71L74.58 176.673M83.867 156.016l-12.22 15.168M81.074 135.004l8.785 22.707M74.582 176.672l-24.06-3.75M50.523 172.922l-7.636 9.48" stroke-width="1.2" stroke="#000" stroke-miterlimit="10" fill="none"/><path d="M42.887 182.402l-7.637 9.48" stroke-width="1.2" stroke="#3cc" stroke-miterlimit="10" fill="none"/><path d="M50.523 172.922l-8.78-22.707M54.988 168.586l-7.023-18.168" stroke-width="1.2" stroke="#000" stroke-miterlimit="10" fill="none"/><path d="M29.25 186.383h6v11h-6zm0 0" fill="#fff"/><use xlink:href="#a" x="29.25" y="195.046" fill="#3cc"/><path d="M41.742 150.215l15.278-18.96M57.02 131.254l24.054 3.75M58.543 137.29l19.246 3M81.074 135.004l7.64-9.48" stroke-width="1.2" stroke="#000" stroke-miterlimit="10" fill="none"/><path d="M88.715 125.523l7.637-9.48M96.352 116.043l12.027 1.875" stroke-width="1.2" stroke="#00f" stroke-miterlimit="10" fill="none"/><path d="M108.38 117.918l12.026 1.875" stroke-width="1.2" stroke="#000" stroke-miterlimit="10" fill="none"/><path d="M89.352 110.543h14v11h-14zm0 0" fill="#fff"/><g fill="#00f"><use xlink:href="#b" x="89.352" y="119.206"/><use xlink:href="#c" x="96.329" y="119.206"/></g><path d="M120.406 119.793l8.785 22.71M126.63 120l7.026 18.164M135.684 100.836l-15.278 18.957M129.19 142.504l24.056 3.746M153.246 146.25l15.277-18.957M150.313 140.762l12.222-15.168M168.523 127.293l-8.785-22.71M168.523 127.293l24.055 3.746M159.738 104.582l-24.054-3.746M156.453 109.867l-19.246-2.996M194.81 132.836l7.635-9.477" stroke-width="1.2" stroke="#000" stroke-miterlimit="10" fill="none"/><path d="M202.445 123.36l7.64-9.48" stroke-width="1.2" stroke="#f00" stroke-miterlimit="10" fill="none"/><path d="M190.348 129.242l7.636-9.476" stroke-width="1.2" stroke="#000" stroke-miterlimit="10" fill="none"/><path d="M197.984 119.766l7.64-9.48" stroke-width="1.2" stroke="#f00" stroke-miterlimit="10" fill="none"/><path d="M192.578 131.04l8.78 22.71" stroke-width="1.2" stroke="#000" stroke-miterlimit="10" fill="none"/><path d="M203.855 106.582h8v11h-8zm0 0" fill="#fff"/><use xlink:href="#d" x="203.855" y="115.245" fill="#f00"/><path d="M201.36 153.75l-15.274 18.957M204.293 159.238l-12.22 15.168M225.418 157.496l-24.06-3.746M186.086 172.707l8.78 22.71M194.867 195.418l24.06 3.746M198.156 190.133l19.246 2.996M218.926 199.164l15.273-18.957M234.2 180.207l-8.782-22.71M227.977 180l-7.024-18.164M225.418 157.496l7.637-9.476" stroke-width="1.2" stroke="#000" stroke-miterlimit="10" fill="none"/><path d="M233.055 148.02l7.636-9.48M240.69 138.54l12.033 1.874" stroke-width="1.2" stroke="#f00" stroke-miterlimit="10" fill="none"/><path d="M252.723 140.414l12.027 1.875" stroke-width="1.2" stroke="#000" stroke-miterlimit="10" fill="none"/><path d="M236.69 133.04h8v11h-8zm0 0" fill="#fff"/><use xlink:href="#d" x="236.691" y="141.702" fill="#f00"/></g></svg>
